X: 8
T: Humours Of Ballymanus, The
M: 9/8
L: 1/8
R: slip jig
K: Dmaj
|: ABA A2 F A2 F | ABA A2 F Bcd | ABA A2 F BAF | E2 B B2 A Bcd :|
|: d2 e fed cBA | d2 e fef a3 | d2 e fed cBA | B2 B B2 A Bcd |
Dcd fed cBA | dcd ede f>ef | agf efd cBA | B2 B B2 A Bcd :|
